images/icons/call.svg

<svg height="24pt" viewBox="0 0 24 24" width="24pt" xmlns="http://www.w3.org/2000/svg"><path d="m4.890625 15.953125c2.367187 2.832031 5.214844 5.058594 8.46875 6.632813 1.238281.589843 2.894531 1.285156 4.738281 1.402343.117188.007813.226563.011719.339844.011719 1.238281 0 2.234375-.425781 3.042969-1.308594.003906-.003906.015625-.015625.019531-.023437.289062-.347657.617188-.664063.960938-.996094.234374-.222656.472656-.457031.699218-.695313 1.0625-1.105468 1.0625-2.507812-.007812-3.574218l-2.988282-2.992188c-.507812-.523437-1.117187-.804687-1.75-.804687-.636718 0-1.25.28125-1.773437.800781l-1.777344 1.78125c-.164062-.09375-.335937-.179688-.496093-.257812-.195313-.101563-.382813-.195313-.546876-.300782-1.621093-1.027344-3.089843-2.371094-4.5-4.097656-.710937-.898438-1.1875-1.65625-1.519531-2.425781.464844-.421875.902344-.863281 1.328125-1.296875.148438-.15625.300782-.308594.457032-.464844.535156-.535156.824218-1.15625.824218-1.789062 0-.632813-.28125-1.253907-.824218-1.789063l-1.484376-1.484375c-.171874-.171875-.335937-.339844-.503906-.515625-.328125-.339844-.671875-.6875-1.011718-1-.511719-.503906-1.113282-.765625-1.75-.765625-.632813 0-1.238282.261719-1.769532.769531l-1.859375 1.859375c-.679687.679688-1.0625 1.5-1.1406248 2.449219-.09375 1.1875.1249998 2.449219.6914058 3.976563.871094 2.363281 2.183594 4.554687 4.132813 6.898437zm-3.609375-10.769531c.058594-.664063.3125-1.214844.789062-1.691406l1.851563-1.851563c.289063-.277344.605469-.421875.914063-.421875.304687 0 .613281.144531.894531.433594.332031.308594.648437.628906.984375.972656.167968.175781.34375.347656.519531.527344l1.480469 1.484375c.308594.304687.46875.621093.46875.929687s-.160156.621094-.46875.929688c-.152344.152344-.308594.3125-.460938.464844-.464844.46875-.898437.910156-1.375 1.335937-.007812.007813-.015625.011719-.023437.023437-.414063.414063-.347657.804688-.25 1.105469.003906.011719.011719.023438.015625.039063.382812.917968.914062 1.792968 1.746094 2.839844 1.492187 1.839843 3.0625 3.265624 4.792968 4.363281.214844.140625.441406.25.65625.359375.199219.101562.382813.195312.546875.296875.019531.011719.035157.023437.054688.03125.164062.085937.324219.125.484375.125.398437 0 .65625-.253907.738281-.339844l1.863281-1.859375c.285156-.289062.601563-.441406.910156-.441406.375 0 .683594.234375.878907.441406l3 2.996094c.59375.59375.589843 1.242187-.015625 1.875-.210938.222656-.429688.4375-.664063.660156-.347656.339844-.710937.6875-1.039062 1.078125-.570313.617187-1.25.90625-2.132813.90625-.082031 0-.171875-.003906-.257812-.011719-1.632813-.101562-3.148438-.738281-4.285156-1.28125-3.09375-1.496094-5.808594-3.621094-8.0625-6.316406-1.855469-2.234375-3.105469-4.3125-3.929688-6.539062-.511719-1.367188-.707031-2.46875-.625-3.464844zm0 0"/></svg>

<?xml version="1.0" encoding="UTF-8"?>
<svg xmlns="http://www.w3.org/2000/svg" xmlns:xlink="http://www.w3.org/1999/xlink" width="24pt" height="24pt" viewBox="0 0 24 24" version="1.1">
<g id="surface1">
<path style=" stroke:none;fill-rule:nonzero;fill:rgb(0%,0%,0%);fill-opacity:1;" d="M 4.890625 15.953125 C 7.257812 18.785156 10.105469 21.011719 13.359375 22.585938 C 14.597656 23.175781 16.253906 23.871094 18.097656 23.988281 C 18.214844 23.996094 18.324219 24 18.4375 24 C 19.675781 24 20.671875 23.574219 21.480469 22.691406 C 21.484375 22.6875 21.496094 22.675781 21.5 22.667969 C 21.789062 22.320312 22.117188 22.003906 22.460938 21.671875 C 22.695312 21.449219 22.933594 21.214844 23.160156 20.976562 C 24.222656 19.871094 24.222656 18.46875 23.152344 17.402344 L 20.164062 14.410156 C 19.65625 13.886719 19.046875 13.605469 18.414062 13.605469 C 17.777344 13.605469 17.164062 13.886719 16.640625 14.40625 L 14.863281 16.1875 C 14.699219 16.09375 14.527344 16.007812 14.367188 15.929688 C 14.171875 15.828125 13.984375 15.734375 13.820312 15.628906 C 12.199219 14.601562 10.730469 13.257812 9.320312 11.53125 C 8.609375 10.632812 8.132812 9.875 7.800781 9.105469 C 8.265625 8.683594 8.703125 8.242188 9.128906 7.808594 C 9.277344 7.652344 9.429688 7.5 9.585938 7.34375 C 10.121094 6.808594 10.410156 6.1875 10.410156 5.554688 C 10.410156 4.921875 10.128906 4.300781 9.585938 3.765625 L 8.101562 2.28125 C 7.929688 2.109375 7.765625 1.941406 7.597656 1.765625 C 7.269531 1.425781 6.925781 1.078125 6.585938 0.765625 C 6.074219 0.261719 5.472656 0 4.835938 0 C 4.203125 0 3.597656 0.261719 3.066406 0.769531 L 1.207031 2.628906 C 0.527344 3.308594 0.144531 4.128906 0.0664062 5.078125 C -0.0273438 6.265625 0.191406 7.527344 0.757812 9.054688 C 1.628906 11.417969 2.941406 13.609375 4.890625 15.953125 Z M 1.28125 5.183594 C 1.339844 4.519531 1.59375 3.96875 2.070312 3.492188 L 3.921875 1.640625 C 4.210938 1.363281 4.527344 1.21875 4.835938 1.21875 C 5.140625 1.21875 5.449219 1.363281 5.730469 1.652344 C 6.0625 1.960938 6.378906 2.28125 6.714844 2.625 C 6.882812 2.800781 7.058594 2.972656 7.234375 3.152344 L 8.714844 4.636719 C 9.023438 4.941406 9.183594 5.257812 9.183594 5.566406 C 9.183594 5.875 9.023438 6.1875 8.714844 6.496094 C 8.5625 6.648438 8.40625 6.808594 8.253906 6.960938 C 7.789062 7.429688 7.355469 7.871094 6.878906 8.296875 C 6.871094 8.304688 6.863281 8.308594 6.855469 8.320312 C 6.441406 8.734375 6.507812 9.125 6.605469 9.425781 C 6.609375 9.4375 6.617188 9.449219 6.621094 9.464844 C 7.003906 10.382812 7.535156 11.257812 8.367188 12.304688 C 9.859375 14.144531 11.429688 15.570312 13.160156 16.667969 C 13.375 16.808594 13.601562 16.917969 13.816406 17.027344 C 14.015625 17.128906 14.199219 17.222656 14.363281 17.324219 C 14.382812 17.335938 14.398438 17.347656 14.417969 17.355469 C 14.582031 17.441406 14.742188 17.480469 14.902344 17.480469 C 15.300781 17.480469 15.558594 17.226562 15.640625 17.140625 L 17.503906 15.28125 C 17.789062 14.992188 18.105469 14.839844 18.414062 14.839844 C 18.789062 14.839844 19.097656 15.074219 19.292969 15.28125 L 22.292969 18.277344 C 22.886719 18.871094 22.882812 19.519531 22.277344 20.152344 C 22.066406 20.375 21.847656 20.589844 21.613281 20.8125 C 21.265625 21.152344 20.902344 21.5 20.574219 21.890625 C 20.003906 22.507812 19.324219 22.796875 18.441406 22.796875 C 18.359375 22.796875 18.269531 22.792969 18.183594 22.785156 C 16.550781 22.683594 15.035156 22.046875 13.898438 21.503906 C 10.804688 20.007812 8.089844 17.882812 5.835938 15.1875 C 3.980469 12.953125 2.730469 10.875 1.90625 8.648438 C 1.394531 7.28125 1.199219 6.179688 1.28125 5.183594 Z M 1.28125 5.183594 "/>
</g>
</svg>
